public/avatar/hat/3.svg

<svg xmlns:xlink="http://www.w3.org/1999/xlink" height="92.9" width="100.7" xmlns="http://www.w3.org/2000/svg"><use height="20.2" transform="translate(28.75 37)" width="19.75" xlink:href="#a"/><defs><use height="20.2" width="19.75" xlink:href="#b" id="a"/><g id="b"><path d="M-9.1-2.95q.55-4.4 4.8-5.85 4-1.4 7.55-.4 6.05 1.7 6 7.3-2.3-1.25-2.85-3.7l-.1.95q-.35 1.95-2.35 2.6l-.55-.4Q1.5-3.95 1.2-6.3l-.15.75Q.3-3.05-2.1-2.3q-2.25-1.45-2.55-3.95l-.3.8q-1.15 2.7-4.15 2.5M9.3 3.2l.05 4.45L3.7 9.2q-4.2.8-8.3 0-2.45-.3-4.6-1.3l-.2-5.05Q-5.35 4.7-1.1 4.9q4.25.1 8.4-1l2-.7" fill="#f30" fill-rule="evenodd" transform="translate(9.9 10.1)"/><path d="M-9.1-2.95q3 .2 4.15-2.5l.3-.8q.3 2.5 2.55 3.95 2.4-.75 3.15-3.25l.15-.75q.3 2.35 2.2 3.85l.55.4q2-.65 2.35-2.6l.1-.95q.55 2.45 2.85 3.7l.05 5.1-2 .7Q3.15 5-1.1 4.9q-4.25-.2-8.3-2.05l.3-5.8" fill="#fc0" fill-rule="evenodd" transform="translate(9.9 10.1)"/><path d="M9.25-1.9q.05-5.6-6-7.3-3.55-1-7.55.4-4.25 1.45-4.8 5.85l-.3 5.8.2 5.05q2.15 1 4.6 1.3 4.1.8 8.3 0l5.65-1.55L9.3 3.2l-.05-5.1Z" fill="none" stroke="#900" stroke-linecap="round" stroke-linejoin="round" transform="translate(9.9 10.1)"/></g></defs></svg>

<?xml version="1.0" encoding="UTF-8" standalone="no"?>
<svg xmlns:xlink="http://www.w3.org/1999/xlink" height="92.9px" width="100.7px" xmlns="http://www.w3.org/2000/svg">
  <g transform="matrix(1.0, 0.0, 0.0, 1.0, 38.65, 49.75)">
    <use height="20.2" transform="matrix(1.0, 0.0, 0.0, 1.0, -9.9, -12.75)" width="19.75" xlink:href="#sprite0"/>
  </g>
  <defs>
    <g id="sprite0" transform="matrix(1.0, 0.0, 0.0, 1.0, 9.9, 10.1)">
      <use height="20.2" transform="matrix(1.0, 0.0, 0.0, 1.0, -9.9, -10.1)" width="19.75" xlink:href="#shape0"/>
    </g>
    <g id="shape0" transform="matrix(1.0, 0.0, 0.0, 1.0, 9.9, 10.1)">
      <path d="M-9.1 -2.95 Q-8.55 -7.35 -4.3 -8.8 -0.3 -10.2 3.25 -9.2 9.3 -7.5 9.25 -1.9 6.95 -3.15 6.4 -5.6 L6.3 -4.65 Q5.95 -2.7 3.95 -2.05 L3.4 -2.45 Q1.5 -3.95 1.2 -6.3 L1.05 -5.55 Q0.3 -3.05 -2.1 -2.3 -4.35 -3.75 -4.65 -6.25 L-4.95 -5.45 Q-6.1 -2.75 -9.1 -2.95 M9.3 3.2 L9.35 7.65 3.7 9.2 Q-0.5 10.0 -4.6 9.2 -7.05 8.9 -9.2 7.9 L-9.4 2.85 Q-5.35 4.7 -1.1 4.9 3.15 5.0 7.3 3.9 L9.3 3.2" fill="#ff3300" fill-rule="evenodd" stroke="none"/>
      <path d="M-9.1 -2.95 Q-6.1 -2.75 -4.95 -5.45 L-4.65 -6.25 Q-4.35 -3.75 -2.1 -2.3 0.3 -3.05 1.05 -5.55 L1.2 -6.3 Q1.5 -3.95 3.4 -2.45 L3.95 -2.05 Q5.95 -2.7 6.3 -4.65 L6.4 -5.6 Q6.95 -3.15 9.25 -1.9 L9.3 3.2 7.3 3.9 Q3.15 5.0 -1.1 4.9 -5.35 4.7 -9.4 2.85 L-9.1 -2.95" fill="#ffcc00" fill-rule="evenodd" stroke="none"/>
      <path d="M9.25 -1.9 Q9.3 -7.5 3.25 -9.2 -0.3 -10.2 -4.3 -8.8 -8.55 -7.35 -9.1 -2.95 L-9.4 2.85 -9.2 7.9 Q-7.05 8.9 -4.6 9.2 -0.5 10.0 3.7 9.2 L9.35 7.65 9.3 3.2 9.25 -1.9 Z" fill="none" stroke="#990000" stroke-linecap="round" stroke-linejoin="round" stroke-width="1.0"/>
    </g>
  </defs>
</svg>
